public/assets/img/secenek5.svg

<?xml version="1.0" encoding="utf-8"?>
<!-- Generator: Adobe Illustrator 16.0.0, SVG Export Plug-In . SVG Version: 6.00 Build 0)  -->
<!DOCTYPE svg PUBLIC "-//W3C//DTD SVG 1.1//EN" "http://www.w3.org/Graphics/SVG/1.1/DTD/svg11.dtd">
<svg version="1.1" id="Layer_1" xmlns="http://www.w3.org/2000/svg" xmlns:xlink="http://www.w3.org/1999/xlink" x="0px" y="0px"
	 width="180px" height="150px" viewBox="0 0 180 150" enable-background="new 0 0 180 150" xml:space="preserve">
<g>
	<g>
		<g>
			<g>
				<polygon fill="#1C75BC" points="45.588,148.99 1.176,75 45.588,1.009 134.412,1.009 178.822,75 134.412,148.99 				"/>
				<path fill="#2F5190" d="M134.982,150H45.017L0,75l0.312-0.521L45.017,0h89.965L180,75l-0.313,0.521L134.982,150z
					 M46.159,147.981h87.681L177.646,75L133.84,2.019H46.159L2.353,75L46.159,147.981z"/>
			</g>
			<g>
				<polygon fill="#F5C714" points="33.228,128.399 45.588,148.99 134.412,148.99 146.771,128.399 				"/>
				<path fill="#2F5190" d="M134.982,150H45.017l-13.572-22.61h117.108L134.982,150z M46.159,147.981h87.681l11.15-18.573H35.01
					L46.159,147.981z"/>
			</g>
		</g>
		<g enable-background="new    ">
			<g>
				<path d="M60.494,141.694c0.565,0.348,1.394,0.639,2.265,0.639c1.293,0,2.048-0.683,2.048-1.671c0-0.916-0.521-1.438-1.845-1.946
					c-1.597-0.568-2.584-1.396-2.584-2.777c0-1.525,1.264-2.658,3.166-2.658c1.001,0,1.728,0.23,2.163,0.479l-0.35,1.031
					c-0.317-0.174-0.973-0.464-1.857-0.464c-1.335,0-1.843,0.799-1.843,1.468c0,0.915,0.595,1.366,1.944,1.891
					c1.654,0.639,2.496,1.438,2.496,2.877c0,1.512-1.116,2.818-3.426,2.818c-0.943,0-1.975-0.275-2.497-0.625L60.494,141.694z"/>
			</g>
			<g>
				<path d="M68.583,139.95c0.028,1.729,1.132,2.441,2.41,2.441c0.915,0,1.467-0.16,1.944-0.363l0.219,0.916
					c-0.45,0.203-1.221,0.436-2.337,0.436c-2.164,0-3.456-1.424-3.456-3.546s1.249-3.793,3.296-3.793
					c2.294,0,2.903,2.021,2.903,3.313c0,0.261-0.028,0.465-0.043,0.596H68.583L68.583,139.95z M72.328,139.034
					c0.015-0.814-0.333-2.078-1.771-2.078c-1.292,0-1.857,1.191-1.96,2.078H72.328z"/>
			</g>
			<g>
				<path d="M80.168,142.972c-0.305,0.16-0.973,0.394-1.844,0.408l-0.362,0.58c0.521,0.102,1.016,0.465,1.016,1.061
					c0,0.873-0.726,1.207-1.509,1.207c-0.334,0-0.739-0.088-1.018-0.248l0.219-0.652c0.218,0.13,0.508,0.188,0.798,0.188
					c0.334,0,0.624-0.102,0.624-0.449c-0.014-0.393-0.448-0.538-1.133-0.61l0.611-1.119c-1.787-0.218-2.935-1.599-2.935-3.546
					c0-2.165,1.481-3.734,3.774-3.734c0.756,0,1.423,0.188,1.771,0.362l-0.291,0.988c-0.305-0.175-0.784-0.334-1.479-0.334
					c-1.611,0-2.482,1.19-2.482,2.659c0,1.628,1.045,2.631,2.438,2.631c0.727,0,1.22-0.189,1.567-0.35L80.168,142.972z"/>
			</g>
			<g>
				<path d="M82.26,139.95c0.029,1.729,1.134,2.441,2.41,2.441c0.915,0,1.467-0.16,1.945-0.363l0.219,0.916
					c-0.451,0.203-1.221,0.436-2.338,0.436c-2.164,0-3.456-1.424-3.456-3.546s1.249-3.793,3.296-3.793
					c2.295,0,2.904,2.021,2.904,3.313c0,0.261-0.029,0.465-0.044,0.596H82.26L82.26,139.95z M86.006,139.034
					c0.015-0.814-0.334-2.078-1.771-2.078c-1.293,0-1.858,1.191-1.961,2.078H86.006z"/>
			</g>
			<g>
				<path d="M88.824,138.104c0-0.728-0.016-1.322-0.06-1.904h1.134l0.072,1.163h0.028c0.349-0.669,1.162-1.322,2.324-1.322
					c0.973,0,2.48,0.581,2.48,2.994v4.199h-1.275v-4.056c0-1.134-0.424-2.078-1.627-2.078c-0.844,0-1.497,0.597-1.714,1.309
					c-0.059,0.16-0.087,0.378-0.087,0.598v4.229h-1.277v-5.131H88.824z"/>
			</g>
			<g>
				<path d="M97.594,139.95c0.029,1.729,1.135,2.441,2.41,2.441c0.916,0,1.467-0.16,1.945-0.363l0.219,0.916
					c-0.451,0.203-1.221,0.436-2.338,0.436c-2.164,0-3.455-1.424-3.455-3.546s1.248-3.793,3.295-3.793
					c2.295,0,2.904,2.021,2.904,3.313c0,0.261-0.029,0.465-0.043,0.596H97.594L97.594,139.95z M101.34,139.034
					c0.016-0.814-0.334-2.078-1.77-2.078c-1.293,0-1.859,1.191-1.961,2.078H101.34z"/>
			</g>
			<g>
				<path d="M105.42,139.427h0.029c0.176-0.246,0.422-0.553,0.625-0.799l2.061-2.428h1.539l-2.715,2.893l3.094,4.143h-1.555
					l-2.426-3.372l-0.652,0.728v2.646h-1.264v-10.318h1.264V139.427L105.42,139.427z"/>
			</g>
			<g>
				<path d="M119.273,134.863h-3.602l-0.363,2.427c0.219-0.027,0.42-0.059,0.77-0.059c0.727,0,1.451,0.16,2.033,0.509
					c0.74,0.422,1.35,1.235,1.35,2.428c0,1.847-1.467,3.228-3.514,3.228c-1.031,0-1.902-0.291-2.352-0.582l0.318-0.973
					c0.393,0.23,1.162,0.521,2.02,0.521c1.205,0,2.234-0.784,2.234-2.049c-0.014-1.221-0.826-2.094-2.715-2.094
					c-0.537,0-0.959,0.06-1.307,0.103l0.609-4.534h4.518V134.863L119.273,134.863z"/>
			</g>
		</g>
	</g>
	<g>
		<g>
			<path fill="#FFFFFF" stroke="#FFFFFF" stroke-width="15" stroke-miterlimit="10" d="M125.309,72.577"/>
		</g>
		<g>
			<path fill="#FFFFFF" stroke="#FFFFFF" stroke-width="15" stroke-miterlimit="10" d="M54.691,72.577"/>
		</g>
		<g>
			<rect x="51.693" y="36.246" fill="#FFFFFF" width="6.05" height="71.673"/>
		</g>
		<g>
			<g>
				<rect x="54.691" y="34.207" fill="#FFFFFF" width="70.616" height="6.056"/>
			</g>
			<g>
				<polygon fill="#FFFFFF" points="124.207,111.101 52.551,39.376 56.831,35.095 128.486,106.819 				"/>
			</g>
			<g>
				<polygon fill="#FFFFFF" points="56.857,110.089 52.579,105.806 124.207,34.104 128.486,38.388 				"/>
			</g>
			<g>
				<rect x="54.718" y="104.918" fill="#FFFFFF" width="71.627" height="6.058"/>
			</g>
			<g>
				<rect x="122.334" y="37.235" fill="#FFFFFF" width="6.051" height="70.711"/>
			</g>
		</g>
		<g>
			<path fill="#FFFFFF" d="M72.346,37.235c0,9.76-7.905,17.671-17.655,17.671c-9.748,0-17.654-7.912-17.654-17.671
				c0-9.76,7.906-17.672,17.654-17.672C64.441,19.563,72.346,27.476,72.346,37.235z"/>
		</g>
		<g>
			<path fill="#FFFFFF" d="M142.961,37.235c0,9.76-7.904,17.671-17.654,17.671c-9.748,0-17.654-7.912-17.654-17.671
				c0-9.76,7.906-17.672,17.654-17.672C135.059,19.563,142.961,27.476,142.961,37.235z"/>
		</g>
		<g>
			<ellipse fill="#FFFFFF" cx="90" cy="72.577" rx="17.655" ry="17.672"/>
		</g>
		<g>
			<path fill="#FFFFFF" d="M72.346,107.92c0,9.761-7.905,17.673-17.655,17.673c-9.748,0-17.654-7.912-17.654-17.673
				c0-9.76,7.906-17.671,17.654-17.671C64.441,90.249,72.346,98.16,72.346,107.92z"/>
		</g>
		<g>
			<path fill="#FFFFFF" d="M142.961,107.92c0,9.761-7.904,17.673-17.654,17.673c-9.748,0-17.654-7.912-17.654-17.673
				c0-9.76,7.906-17.671,17.654-17.671C135.059,90.249,142.961,98.16,142.961,107.92z"/>
		</g>
	</g>
	<g>
		<g>
			<ellipse fill="none" cx="54.691" cy="37.234" rx="17.654" ry="17.671"/>
		</g>
		<g>
			<g>
				<path d="M39.554,31.671c0.799-0.136,1.915-0.238,3.49-0.238c1.593,0,2.729,0.307,3.49,0.918c0.729,0.576,1.22,1.525,1.22,2.646
					s-0.373,2.069-1.051,2.714c-0.884,0.831-2.187,1.204-3.711,1.204c-0.339,0-0.646-0.017-0.882-0.051v4.087h-2.56V31.671H39.554z
					 M42.113,36.861c0.221,0.051,0.492,0.067,0.863,0.067c1.373,0,2.221-0.694,2.221-1.865c0-1.051-0.729-1.68-2.018-1.68
					c-0.524,0-0.881,0.051-1.065,0.103L42.113,36.861L42.113,36.861z"/>
			</g>
			<g>
				<path d="M49.396,31.671c0.83-0.136,2.066-0.238,3.439-0.238c1.693,0,2.88,0.254,3.691,0.899c0.68,0.543,1.052,1.341,1.052,2.392
					c0,1.459-1.034,2.459-2.017,2.815v0.052c0.799,0.321,1.235,1.084,1.524,2.137c0.354,1.289,0.712,2.781,0.933,3.222h-2.644
					c-0.188-0.322-0.457-1.254-0.798-2.663c-0.307-1.425-0.797-1.814-1.848-1.832h-0.779v4.494h-2.559L49.396,31.671L49.396,31.671z
					 M51.956,36.591h1.019c1.285,0,2.049-0.646,2.049-1.646c0-1.051-0.712-1.578-1.896-1.594c-0.628,0-0.982,0.05-1.169,0.084
					L51.956,36.591L51.956,36.591z"/>
			</g>
			<g>
				<path d="M69.83,37.116c0,3.749-2.271,6.021-5.607,6.021c-3.39,0-5.371-2.563-5.371-5.817c0-3.427,2.186-5.987,5.557-5.987
					C67.916,31.332,69.83,33.961,69.83,37.116z M61.579,37.269c0,2.238,1.05,3.815,2.778,3.815c1.745,0,2.745-1.661,2.745-3.884
					c0-2.053-0.982-3.816-2.763-3.816C62.594,33.386,61.579,35.046,61.579,37.269z"/>
			</g>
		</g>
	</g>
	<g>
		<g>
			<ellipse fill="none" cx="54.718" cy="107.919" rx="17.653" ry="17.671"/>
		</g>
		<g>
			<g>
				<path d="M52.997,110.701l-0.813,2.937h-2.677l3.489-11.433h3.389l3.541,11.433h-2.779l-0.882-2.937H52.997z M55.896,108.767
					l-0.715-2.424c-0.203-0.68-0.406-1.526-0.576-2.205h-0.032c-0.17,0.679-0.339,1.543-0.525,2.205l-0.679,2.424H55.896z"/>
			</g>
		</g>
	</g>
	<g>
		<g>
			<ellipse fill="none" cx="125.359" cy="107.92" rx="17.654" ry="17.671"/>
		</g>
		<g>
			<g>
				<path d="M121.123,102.341c0.678-0.137,2.051-0.238,3.338-0.238c1.576,0,2.541,0.152,3.371,0.646
					c0.797,0.425,1.373,1.204,1.373,2.238c0,1.019-0.594,1.968-1.883,2.444v0.033c1.305,0.355,2.271,1.338,2.271,2.814
					c0,1.035-0.475,1.849-1.186,2.427c-0.832,0.662-2.221,1.035-4.49,1.035c-1.271,0-2.219-0.086-2.797-0.17L121.123,102.341
					L121.123,102.341z M123.682,106.716h0.848c1.354,0,2.084-0.56,2.084-1.406c0-0.865-0.66-1.322-1.83-1.322
					c-0.561,0-0.881,0.033-1.102,0.066V106.716L123.682,106.716z M123.682,111.787c0.254,0.034,0.561,0.034,1,0.034
					c1.168,0,2.201-0.441,2.201-1.646c0-1.152-1.033-1.611-2.32-1.611h-0.881V111.787L123.682,111.787z"/>
			</g>
		</g>
	</g>
	<g>
		<g>
			<ellipse fill="none" cx="125.309" cy="37.235" rx="17.654" ry="17.672"/>
		</g>
		<g>
			<g>
				<path d="M129.697,42.638c-0.477,0.237-1.543,0.492-2.934,0.492c-3.947,0-5.982-2.46-5.982-5.716
					c0-3.901,2.781-6.071,6.236-6.071c1.338,0,2.355,0.271,2.814,0.508l-0.525,2.053c-0.527-0.221-1.254-0.424-2.168-0.424
					c-2.053,0-3.645,1.238-3.645,3.781c0,2.291,1.354,3.731,3.66,3.731c0.779,0,1.643-0.169,2.152-0.373L129.697,42.638z"/>
			</g>
		</g>
	</g>
	<g>
		<g>
			<ellipse fill="none" cx="90" cy="72.529" rx="17.655" ry="17.672"/>
		</g>
		<g>
			<g>
				<path d="M84.95,66.948c0.948-0.152,2.187-0.237,3.489-0.237c2.168,0,3.575,0.392,4.678,1.222
					c1.186,0.881,1.932,2.289,1.932,4.308c0,2.188-0.799,3.696-1.896,4.63c-1.203,1.002-3.034,1.477-5.271,1.477
					c-1.338,0-2.287-0.086-2.932-0.17V66.948z M87.542,76.276c0.221,0.052,0.576,0.052,0.898,0.052
					c2.338,0.019,3.862-1.272,3.862-4.003c0.018-2.375-1.371-3.63-3.592-3.63c-0.576,0-0.948,0.051-1.168,0.103V76.276
					L87.542,76.276z"/>
			</g>
		</g>
	</g>
</g>
</svg>

<?xml version="1.0"?>
<svg width="180" height="150" xmlns="http://www.w3.org/2000/svg" xmlns:svg="http://www.w3.org/2000/svg" enable-background="new 0 0 180 150" version="1.1" xml:space="preserve">
 <g class="layer">
  <title>Layer 1</title>
  <g id="svg_1">
   <g id="svg_2">
    <g id="svg_3">
     <g id="svg_4">
      <polygon fill="#1C75BC" id="svg_5" points="45.588,148.99 1.176,75 45.588,1.009 134.412,1.009 178.822,75 134.412,148.99     "/>
      <path d="m134.98,150l-89.96,0l-45.02,-75l0.31,-0.52l44.71,-74.48l89.96,0l45.02,75l-0.31,0.52l-44.71,74.48zm-88.82,-2.02l87.68,0l43.81,-72.98l-43.81,-72.98l-87.68,0l-43.81,72.98l43.81,72.98z" fill="#2F5190" id="svg_6"/>
     </g>
    </g>
    <g id="svg_10"/>
   </g>
   <g id="svg_27">
    <g id="svg_28">
     <path d="m125.31,72.58" fill="#FFFFFF" id="svg_29" stroke="#FFFFFF" stroke-miterlimit="10" stroke-width="15"/>
    </g>
    <g id="svg_30">
     <path d="m54.69,72.58" fill="#FFFFFF" id="svg_31" stroke="#FFFFFF" stroke-miterlimit="10" stroke-width="15"/>
    </g>
    <g id="svg_32">
     <rect fill="#FFFFFF" height="71.67" id="svg_33" width="6.05" x="51.69" y="36.25"/>
    </g>
    <g id="svg_34">
     <g id="svg_35">
      <rect fill="#FFFFFF" height="6.06" id="svg_36" width="70.62" x="54.69" y="34.21"/>
     </g>
     <g id="svg_37">
      <polygon fill="#FFFFFF" id="svg_38" points="124.207,111.101 52.551,39.376 56.831,35.095 128.486,106.819     "/>
     </g>
     <g id="svg_39">
      <polygon fill="#FFFFFF" id="svg_40" points="56.857,110.089 52.579,105.806 124.207,34.104 128.486,38.388     "/>
     </g>
     <g id="svg_41">
      <rect fill="#FFFFFF" height="6.06" id="svg_42" width="71.63" x="54.72" y="104.92"/>
     </g>
     <g id="svg_43">
      <rect fill="#FFFFFF" height="70.71" id="svg_44" width="6.05" x="122.33" y="37.23"/>
     </g>
    </g>
    <g id="svg_45">
     <path d="m72.35,37.23c0,9.76 -7.91,17.68 -17.66,17.68c-9.75,0 -17.65,-7.92 -17.65,-17.68c0,-9.75 7.9,-17.67 17.65,-17.67c9.75,0 17.66,7.92 17.66,17.67z" fill="#FFFFFF" id="svg_46"/>
    </g>
    <g id="svg_47">
     <path d="m142.96,37.23c0,9.76 -7.9,17.68 -17.65,17.68c-9.75,0 -17.66,-7.92 -17.66,-17.68c0,-9.75 7.91,-17.67 17.66,-17.67c9.75,0 17.65,7.92 17.65,17.67z" fill="#FFFFFF" id="svg_48"/>
    </g>
    <g id="svg_49">
     <ellipse cx="90" cy="72.58" fill="#FFFFFF" id="svg_50" rx="17.66" ry="17.67"/>
    </g>
    <g id="svg_51">
     <path d="m72.35,107.92c0,9.76 -7.91,17.67 -17.66,17.67c-9.75,0 -17.65,-7.91 -17.65,-17.67c0,-9.76 7.9,-17.67 17.65,-17.67c9.75,0 17.66,7.91 17.66,17.67z" fill="#FFFFFF" id="svg_52"/>
    </g>
    <g id="svg_53">
     <path d="m142.96,107.92c0,9.76 -7.9,17.67 -17.65,17.67c-9.75,0 -17.66,-7.91 -17.66,-17.67c0,-9.76 7.91,-17.67 17.66,-17.67c9.75,0 17.65,7.91 17.65,17.67z" fill="#FFFFFF" id="svg_54"/>
    </g>
   </g>
   <g id="svg_55">
    <g id="svg_56">
     <ellipse cx="54.69" cy="37.23" fill="none" id="svg_57" rx="17.65" ry="17.67"/>
    </g>
    <g id="svg_58">
     <g id="svg_59">
      <path d="m39.55,31.67c0.8,-0.13 1.92,-0.24 3.49,-0.24c1.6,0 2.73,0.31 3.49,0.92c0.73,0.58 1.22,1.53 1.22,2.65s-0.37,2.07 -1.05,2.71c-0.88,0.83 -2.18,1.2 -3.71,1.2c-0.34,0 -0.64,-0.01 -0.88,-0.05l0,4.09l-2.56,0l0,-11.28l0,0zm2.56,5.19c0.22,0.05 0.49,0.07 0.87,0.07c1.37,0 2.22,-0.7 2.22,-1.87c0,-1.05 -0.73,-1.68 -2.02,-1.68c-0.52,0 -0.88,0.05 -1.07,0.11l0,3.37l0,0z" id="svg_60"/>
     </g>
     <g id="svg_61">
      <path d="m49.4,31.67c0.83,-0.13 2.06,-0.24 3.44,-0.24c1.69,0 2.88,0.26 3.69,0.9c0.68,0.55 1.05,1.34 1.05,2.39c0,1.46 -1.04,2.46 -2.02,2.82l0,0.05c0.8,0.32 1.24,1.09 1.53,2.14c0.35,1.29 0.71,2.78 0.93,3.22l-2.65,0c-0.18,-0.32 -0.45,-1.25 -0.79,-2.66c-0.31,-1.43 -0.8,-1.82 -1.85,-1.83l-0.78,0l0,4.49l-2.56,0l0.01,-11.28l0,0zm2.56,4.92l1.02,0c1.28,0 2.04,-0.64 2.04,-1.64c0,-1.06 -0.71,-1.58 -1.89,-1.6c-0.63,0 -0.98,0.05 -1.17,0.09l0,3.15l0,0z" id="svg_62"/>
     </g>
     <g id="svg_63">
      <path d="m69.83,37.12c0,3.75 -2.27,6.02 -5.61,6.02c-3.39,0 -5.37,-2.57 -5.37,-5.82c0,-3.43 2.19,-5.99 5.56,-5.99c3.51,0 5.42,2.63 5.42,5.79zm-8.25,0.15c0,2.24 1.05,3.81 2.78,3.81c1.74,0 2.74,-1.66 2.74,-3.88c0,-2.05 -0.98,-3.82 -2.76,-3.82c-1.75,0.01 -2.76,1.67 -2.76,3.89z" id="svg_64"/>
     </g>
    </g>
   </g>
   <g id="svg_65">
    <g id="svg_66">
     <ellipse cx="54.72" cy="107.92" fill="none" id="svg_67" rx="17.65" ry="17.67"/>
    </g>
    <g id="svg_68">
     <g id="svg_69">
      <path d="m53,110.7l-0.82,2.94l-2.67,0l3.49,-11.44l3.38,0l3.55,11.44l-2.78,0l-0.89,-2.94l-3.26,0zm2.9,-1.93l-0.72,-2.43c-0.2,-0.68 -0.41,-1.52 -0.58,-2.2l-0.03,0c-0.17,0.68 -0.34,1.54 -0.52,2.2l-0.68,2.43l2.53,0z" id="svg_70"/>
     </g>
    </g>
   </g>
   <g id="svg_71">
    <g id="svg_72">
     <ellipse cx="125.36" cy="107.92" fill="none" id="svg_73" rx="17.65" ry="17.67"/>
    </g>
    <g id="svg_74">
     <g id="svg_75">
      <path d="m121.12,102.34c0.68,-0.14 2.05,-0.24 3.34,-0.24c1.58,0 2.54,0.15 3.37,0.65c0.8,0.42 1.37,1.2 1.37,2.24c0,1.02 -0.59,1.96 -1.88,2.44l0,0.03c1.31,0.36 2.27,1.34 2.27,2.82c0,1.03 -0.47,1.85 -1.18,2.42c-0.84,0.67 -2.22,1.04 -4.49,1.04c-1.27,0 -2.22,-0.09 -2.8,-0.17l0,-11.23l0,0zm2.56,4.38l0.85,0c1.35,0 2.08,-0.56 2.08,-1.41c0,-0.87 -0.66,-1.32 -1.83,-1.32c-0.56,0 -0.88,0.03 -1.1,0.06l0,2.67l0,0zm0,5.07c0.26,0.03 0.56,0.03 1,0.03c1.17,0 2.2,-0.44 2.2,-1.64c0,-1.16 -1.03,-1.62 -2.32,-1.62l-0.88,0l0,3.23l0,0z" id="svg_76"/>
     </g>
    </g>
   </g>
   <g id="svg_77">
    <g id="svg_78">
     <ellipse cx="125.31" cy="37.23" fill="none" id="svg_79" rx="17.65" ry="17.67"/>
    </g>
    <g id="svg_80">
     <g id="svg_81">
      <path d="m129.7,42.64c-0.48,0.24 -1.55,0.49 -2.94,0.49c-3.94,0 -5.98,-2.46 -5.98,-5.72c0,-3.9 2.78,-6.07 6.24,-6.07c1.34,0 2.35,0.27 2.81,0.51l-0.52,2.05c-0.53,-0.22 -1.26,-0.42 -2.17,-0.42c-2.05,0 -3.65,1.24 -3.65,3.78c0,2.29 1.36,3.73 3.66,3.73c0.78,0 1.65,-0.17 2.16,-0.37l0.39,2.02z" id="svg_82"/>
     </g>
    </g>
   </g>
   <g id="svg_83">
    <g id="svg_84">
     <ellipse cx="90" cy="72.53" fill="none" id="svg_85" rx="17.66" ry="17.67"/>
    </g>
    <g id="svg_86">
     <g id="svg_87">
      <path d="m84.95,66.95c0.95,-0.15 2.19,-0.24 3.49,-0.24c2.17,0 3.57,0.39 4.68,1.22c1.18,0.88 1.93,2.29 1.93,4.31c0,2.19 -0.8,3.7 -1.9,4.63c-1.2,1 -3.03,1.48 -5.27,1.48c-1.34,0 -2.29,-0.09 -2.93,-0.17l0,-11.23zm2.59,9.33c0.22,0.05 0.58,0.05 0.9,0.05c2.34,0.02 3.86,-1.27 3.86,-4c0.02,-2.38 -1.37,-3.63 -3.59,-3.63c-0.58,0 -0.95,0.05 -1.17,0.1l0,7.48l0,0z" id="svg_88"/>
     </g>
    </g>
   </g>
  </g>
 </g>
</svg>
